Newaita-dark/.DP/22/youtube-indicator-light-sync3.svg

<svg xmlns="http://www.w3.org/2000/svg" xmlns:xlink="http://www.w3.org/1999/xlink" width="22px" height="22px" viewBox="0 0 22 22" version="1.1">
<g id="surface1">
<path style=" stroke:none;fill-rule:nonzero;fill:rgb(93.333334%,93.333334%,93.333334%);fill-opacity:1;" d="M 15.433594 13.214844 C 15.289062 13.214844 15.144531 13.273438 15.03125 13.382812 C 15.003906 13.410156 14.976562 13.441406 14.957031 13.472656 C 14.429688 14.039062 14.105469 14.800781 14.105469 15.636719 C 14.105469 16.46875 14.429688 17.230469 14.957031 17.796875 C 14.976562 17.828125 15.003906 17.859375 15.03125 17.886719 C 15.253906 18.109375 15.613281 18.109375 15.835938 17.886719 C 16.058594 17.664062 16.058594 17.304688 15.835938 17.082031 C 15.808594 17.054688 15.777344 17.03125 15.75 17.011719 C 15.425781 16.648438 15.230469 16.167969 15.230469 15.636719 C 15.230469 15.101562 15.425781 14.621094 15.75 14.257812 C 15.777344 14.238281 15.808594 14.214844 15.835938 14.1875 C 16.058594 13.964844 16.058594 13.605469 15.835938 13.382812 C 15.722656 13.273438 15.578125 13.214844 15.433594 13.214844 Z M 15.433594 13.214844 "/>
<path style=" stroke:none;fill-rule:nonzero;fill:rgb(93.333334%,93.333334%,93.333334%);fill-opacity:1;" d="M 19.132812 18.050781 C 19.277344 18.050781 19.421875 17.996094 19.53125 17.886719 C 19.5625 17.859375 19.585938 17.828125 19.605469 17.796875 C 20.132812 17.230469 20.457031 16.46875 20.457031 15.636719 C 20.457031 14.800781 20.132812 14.039062 19.605469 13.472656 C 19.585938 13.441406 19.5625 13.410156 19.53125 13.382812 C 19.3125 13.160156 18.949219 13.160156 18.730469 13.382812 C 18.507812 13.605469 18.507812 13.964844 18.730469 14.1875 C 18.757812 14.214844 18.785156 14.238281 18.816406 14.257812 C 19.140625 14.621094 19.335938 15.101562 19.335938 15.636719 C 19.335938 16.167969 19.140625 16.648438 18.816406 17.011719 C 18.785156 17.03125 18.757812 17.054688 18.730469 17.082031 C 18.507812 17.304688 18.507812 17.664062 18.730469 17.886719 C 18.839844 17.996094 18.984375 18.050781 19.132812 18.050781 Z M 19.132812 18.050781 "/>
<path style=" stroke:none;fill-rule:nonzero;fill:rgb(93.333334%,93.333334%,93.333334%);fill-opacity:1;" d="M 10.890625 4 C 10.890625 4 4.933594 4 3.445312 4.390625 C 2.644531 4.609375 1.988281 5.269531 1.765625 6.082031 C 1.375 7.574219 1.375 10.660156 1.375 10.660156 C 1.375 10.660156 1.375 13.765625 1.765625 15.238281 C 1.988281 16.050781 2.628906 16.695312 3.445312 16.914062 C 4.949219 17.320312 10.890625 17.320312 10.890625 17.320312 C 10.890625 17.320312 12.363281 17.320312 14.03125 17.273438 C 13.785156 16.78125 13.644531 16.226562 13.644531 15.636719 C 13.644531 13.621094 15.265625 11.996094 17.28125 11.996094 C 18.523438 11.996094 19.617188 12.613281 20.273438 13.558594 C 20.402344 12.15625 20.402344 10.675781 20.402344 10.675781 C 20.402344 10.675781 20.417969 7.574219 20.011719 6.082031 C 19.792969 5.269531 19.148438 4.625 18.332031 4.40625 C 16.84375 4 10.890625 4 10.890625 4 Z M 9.070312 7.175781 C 9.078125 7.175781 9.085938 7.175781 9.09375 7.175781 C 9.171875 7.179688 9.246094 7.199219 9.3125 7.238281 L 14.378906 10.234375 C 14.679688 10.410156 14.679688 10.847656 14.378906 11.023438 L 9.3125 14.015625 C 9.007812 14.199219 8.621094 13.976562 8.621094 13.621094 L 8.621094 7.636719 C 8.621094 7.382812 8.824219 7.179688 9.070312 7.175781 Z M 9.070312 7.175781 "/>
</g>
</svg>

<svg xmlns="http://www.w3.org/2000/svg" width="22" height="22"><g fill="#bdbdbd"><path d="M15.434 13.219a.57.57 0 0 0-.403.164c-.027.027-.05.058-.074.09a3.168 3.168 0 0 0 0 4.324.568.568 0 1 0 .793-.785 2.053 2.053 0 0 1-.52-1.375c0-.535.196-1.016.52-1.38a.568.568 0 0 0-.316-1.043zm0 0M19.133 18.055a.566.566 0 0 0 .472-.258 3.168 3.168 0 0 0 0-4.324.563.563 0 0 0-.875-.09.568.568 0 0 0 .086.875c.325.363.52.844.52 1.379 0 .531-.195 1.011-.52 1.375a.568.568 0 0 0 .316 1.043zm0 0"/><path d="M10.89 4s-5.956 0-7.445.39a2.44 2.44 0 0 0-1.68 1.696c-.39 1.488-.39 4.574-.39 4.574s0 3.106.39 4.578a2.392 2.392 0 0 0 1.68 1.676c1.504.406 7.446.406 7.446.406s1.472 0 3.14-.047a3.647 3.647 0 0 1-.386-1.636 3.631 3.631 0 0 1 3.636-3.64c1.242 0 2.336.616 2.992 1.562.13-1.407.13-2.883.13-2.883s.015-3.102-.391-4.59a2.384 2.384 0 0 0-1.68-1.68C16.844 4 10.891 4 10.891 4zM9.07 7.176h.028a.476.476 0 0 1 .214.066l5.067 2.992c.3.176.3.614 0 .79l-5.066 2.992a.457.457 0 0 1-.692-.395V7.637a.46.46 0 0 1 .45-.461zm0 0"/></g></svg>
